X: 32747
T: Polska Efter Båtsman Däck.
R: mazurka
M: 3/4
K: Gmajor
|:D>G B<G D>G|B2 B4|c>B A>G F>G|A2 A4|
D>F A<D F>A|c2 c4|d>c B>A G>A|B2 B4:|
|:e2 e>d c>e|d2 d>c B>d|c>B A>G F>A|G2 (3BGB d2|
e2 e>d c>e|d2 d>c B>d|c>B A>G F>A|G2 G4:|

